Origami/24x24/apps/dropbox.svg

<svg width="24" height="24" version="1" xmlns="http://www.w3.org/2000/svg">
 <path d="m12.005023 13.500019a0.85722853 0.80014242 0 0 0 -0.391741 0.08594l-3.3197554 1.567309-1.158481-0.370341a0.85722853 0.80014242 0 0 0 -1.135045 0.757871v2.159545a0.85722853 0.80014242 0 0 0 0.40346 0.678178l5.1428574 3.000233a0.85722853 0.80014242 0 0 0 0.907366 0l5.142857-3.000233a0.85722853 0.80014242 0 0 0 0.403459 -0.678174v-1.920464a0.85722853 0.80014242 0 0 0 -1.3125 -0.676615l-1.021205 0.598485-3.177456-2.059536a0.85722853 0.80014242 0 0 0 -0.483816 -0.142198z" style="opacity:.2"/>
 <path d="m12.005023 13.000015a0.85722853 0.80014242 0 0 0 -0.391741 0.08594l-3.3197554 1.567309-1.158481-0.370341a0.85722853 0.80014242 0 0 0 -1.135045 0.757871v2.159545a0.85722853 0.80014242 0 0 0 0.40346 0.678178l5.1428574 3.000233a0.85722853 0.80014242 0 0 0 0.907366 0l5.142857-3.000233a0.85722853 0.80014242 0 0 0 0.403459 -0.678174v-1.920464a0.85722853 0.80014242 0 0 0 -1.3125 -0.676615l-1.021205 0.598485-3.177456-2.059536a0.85722853 0.80014242 0 0 0 -0.483816 -0.142198z" style="fill:#1383d9"/>
 <path d="m8 3.0000044-6 3.75 4 3.2499996-4 3.25 6 3.75 4-3.5 4 3.5 6-3.75-4-3.25 4-3.2499996-6-3.75-4 3.5-4-3.5z" style="opacity:.2"/>
 <path d="m8 2.5l-6 3.75 4 3.25-4 3.25 6 3.75 4-3.5 4 3.5 6-3.75-4-3.25 4-3.25-6-3.75-4 3.5-4-3.5z" style="fill:#5aacff"/>
 <path d="m18 10.000004-6 3.5-6-3.5 6-3.4999996z" style="opacity:.2"/>
 <path d="m18 9.5-6 3.5-6-3.5 6-3.5z" style="fill:#ffffff"/>
 <path d="M 8 2.5 L 2 6.25 L 2.3476562 6.5332031 L 8 3 L 12 6.5 L 16 3 L 21.652344 6.5332031 L 22 6.25 L 16 2.5 L 12 6 L 8 2.5 z M 5.6914062 9.75 L 2 12.75 L 2.3476562 12.966797 L 6 10 L 5.6914062 9.75 z M 18.308594 9.75 L 18 10 L 21.652344 12.966797 L 22 12.75 L 18.308594 9.75 z" style="fill:#ffffff;opacity:.2"/>
</svg>

<svg xmlns="http://www.w3.org/2000/svg" width="24" height="24" version="1">
 <path style="opacity:0.2" d="m 12.005023,13.500019 a 0.85722853,0.80014242 0 0 0 -0.391741,0.08594 l -3.3197554,1.567309 -1.158481,-0.370341 a 0.85722853,0.80014242 0 0 0 -1.135045,0.757871 l 0,2.159545 a 0.85722853,0.80014242 0 0 0 0.40346,0.678178 l 5.1428574,3.000233 a 0.85722853,0.80014242 0 0 0 0.907366,0 l 5.142857,-3.000233 A 0.85722853,0.80014242 0 0 0 18,17.700347 l 0,-1.920464 a 0.85722853,0.80014242 0 0 0 -1.3125,-0.676615 l -1.021205,0.598485 -3.177456,-2.059536 a 0.85722853,0.80014242 0 0 0 -0.483816,-0.142198 z"/>
 <path style="fill:#1383d9" d="m 12.005023,13.000015 a 0.85722853,0.80014242 0 0 0 -0.391741,0.08594 l -3.3197554,1.567309 -1.158481,-0.370341 a 0.85722853,0.80014242 0 0 0 -1.135045,0.757871 l 0,2.159545 a 0.85722853,0.80014242 0 0 0 0.40346,0.678178 l 5.1428574,3.000233 a 0.85722853,0.80014242 0 0 0 0.907366,0 l 5.142857,-3.000233 A 0.85722853,0.80014242 0 0 0 18,17.200343 l 0,-1.920464 a 0.85722853,0.80014242 0 0 0 -1.3125,-0.676615 l -1.021205,0.598485 -3.177456,-2.059536 a 0.85722853,0.80014242 0 0 0 -0.483816,-0.142198 z"/>
 <path style="opacity:0.2" d="m 8,3.0000044 -6,3.75 4,3.2499996 -4,3.25 6,3.75 4,-3.5 4,3.5 6,-3.75 -4,-3.25 4,-3.2499996 -6,-3.75 -4,3.5 -4,-3.5 z"/>
 <path style="fill:#5aacff" d="M 8 2.5 L 2 6.25 L 6 9.5 L 2 12.75 L 8 16.5 L 12 13 L 16 16.5 L 22 12.75 L 18 9.5 L 22 6.25 L 16 2.5 L 12 6 L 8 2.5 z"/>
 <path style="opacity:0.2" d="m 18,10.000004 -6,3.5 -6,-3.5 6,-3.4999996 z"/>
 <path style="fill:#ffffff" d="M 18,9.5 12,13 6,9.5 12,6 Z"/>
 <path style="fill:#ffffff;opacity:0.2" d="M 8 2.5 L 2 6.25 L 2.3476562 6.5332031 L 8 3 L 12 6.5 L 16 3 L 21.652344 6.5332031 L 22 6.25 L 16 2.5 L 12 6 L 8 2.5 z M 5.6914062 9.75 L 2 12.75 L 2.3476562 12.966797 L 6 10 L 5.6914062 9.75 z M 18.308594 9.75 L 18 10 L 21.652344 12.966797 L 22 12.75 L 18.308594 9.75 z"/>
</svg>
